src/assets/icon-public.svg

<svg xmlns="http://www.w3.org/2000/svg" width="40" height="40" viewBox="0 0 40 40">
  <g fill="none" fill-rule="evenodd" stroke="#FFF" stroke-width="2" transform="translate(1 3)">
    <path stroke-linejoin="round" d="M30.5098543,19.3606542 C31.8128445,17.3889696 32.5714286,15.0259304 32.5714286,12.4857143 C32.5714286,5.5900447 26.9813839,1.1571696e-14 20.0857143,1.1571696e-14 C13.1900447,1.1571696e-14 7.6,5.5900447 7.6,12.4857143 C7.6,15.0144035 8.35171518,17.3675203 9.64387007,19.3337891 C10.3168599,20.3578761 11.1364502,21.2770261 12.0727917,22.0613902 C12.1305955,22.1098118 12.1888442,22.1577198 12.2475308,22.2051071"/>
    <path d="M9.77142857 4.92176339C19.9047619 4.79417783 24.9714286 3.68434245 24.9714286 1.59225725M8.06731306 12.5217634C23.2673131 12.2721381 30.8673131 10.1007096 30.8673131 6.00747768"/>
    <path stroke-linejoin="round" d="M27.0160457,23.8395714 L33.6150171,20.4668 C34.8907314,19.7817143 36.3868457,20.0564 37.0035314,21.2045429 C37.6185886,22.3532286 37.0789886,23.8536857 35.8038171,24.5382286 L22.1113314,31.8776571 L21.38716,32.0589714 L8.61698857,32.4036857 C8.61698857,32.4036857 6.97267429,32.8645714 4.99721714,35.1022286"/>
    <path d="M.459528571 28.3892029L6.25181429 23.0578029C9.08281429 21.1485743 12.4393 22.20226 12.4393 22.20226 14.0646143 22.6305743 17.0834429 22.72666 17.0834429 22.72666L22.0951 22.7261171C23.5879571 22.7261171 24.8093857 23.7922886 24.8093857 25.0956886 24.8093857 26.3990886 23.5879571 27.46526 22.0951 27.46526L15.1617286 27.46526M9.77142857 19.0360491C24.9714286 18.7864238 32.5714286 16.6149953 32.5714286 12.5217634"/>
  </g>
</svg>

<?xml version="1.0" encoding="UTF-8"?>
<svg viewBox="0 0 40 40" xmlns="http://www.w3.org/2000/svg">
<g transform="translate(1 3)" fill="none" fill-rule="evenodd" stroke="#FFF" stroke-width="2">
<path d="m30.51 19.361c1.303-1.9717 2.0616-4.3347 2.0616-6.8749 0-6.8957-5.59-12.486-12.486-12.486s-12.486 5.59-12.486 12.486c0 2.5287 0.75172 4.8818 2.0439 6.8481 0.67299 1.0241 1.4926 1.9432 2.4289 2.7276 0.057804 0.048422 0.11605 0.09633 0.17474 0.14372" stroke-linejoin="round"/>
<path d="m9.7714 4.9218c10.133-0.12759 15.2-1.2374 15.2-3.3295m-16.904 10.93c15.2-0.24963 22.8-2.4211 22.8-6.5143"/>
<path d="m27.016 23.84 6.599-3.3728c1.2757-0.68509 2.7718-0.4104 3.3885 0.73774 0.61506 1.1487 0.075457 2.6491-1.1997 3.3337l-13.692 7.3394-0.72417 0.18131-12.77 0.34471s-1.6443 0.46089-3.6198 2.6985" stroke-linejoin="round"/>
<path d="m0.45953 28.389 5.7923-5.3314c2.831-1.9092 6.1875-0.85554 6.1875-0.85554 1.6253 0.42831 4.6441 0.5244 4.6441 0.5244l5.0117-5.429e-4c1.4929 0 2.7143 1.0662 2.7143 2.3696s-1.2214 2.3696-2.7143 2.3696h-6.9334m-5.3903-8.4292c15.2-0.24963 22.8-2.4211 22.8-6.5143"/>
</g>
</svg>
